src/svg/social-linkedin-circular.svg

<svg version="1.2" baseProfile="tiny" xmlns="http://www.w3.org/2000/svg" width="24" height="24" viewBox="0 0 24 24"><g><path d="M10.033 15.3h-1.6v-5.199h1.6v5.199zm-.8-5.866c-.577 0-.866-.267-.866-.8 0-.223.082-.412.25-.567.166-.155.371-.233.616-.233.577 0 .866.268.866.801s-.288.799-.866.799zm6.734 5.866h-1.633v-2.9c0-.755-.268-1.133-.801-1.133-.422 0-.699.211-.834.633-.043.067-.066.201-.066.4v3h-1.633v-3.533c0-.8-.012-1.355-.033-1.666h1.4l.1.699c.367-.556.9-.833 1.633-.833.557 0 1.006.194 1.35.583.346.389.518.95.518 1.684v3.066zM12 21c-4.963 0-9-4.037-9-9s4.037-9 9-9 9 4.037 9 9-4.037 9-9 9zm0-16c-3.859 0-7 3.141-7 7s3.141 7 7 7 7-3.141 7-7-3.141-7-7-7z"/></g></svg>

<?xml version="1.0" encoding="iso-8859-1"?>
<!-- Generator: Adobe Illustrator 16.2.1, SVG Export Plug-In . SVG Version: 6.00 Build 0)  -->
<svg version="1.2" baseProfile="tiny" xmlns="http://www.w3.org/2000/svg" xmlns:xlink="http://www.w3.org/1999/xlink" x="0px"
	 y="0px" width="24px" height="24px" viewBox="0 0 24 24" xml:space="preserve">
<g id="Layer_1">
	<g>
		<path d="M10.033,15.3h-1.6v-5.199h1.6V15.3z M9.233,9.434c-0.577,0-0.866-0.267-0.866-0.8c0-0.223,0.082-0.412,0.25-0.567
			c0.166-0.155,0.371-0.233,0.616-0.233c0.577,0,0.866,0.268,0.866,0.801S9.811,9.434,9.233,9.434z M15.967,15.3h-1.633v-2.9
			c0-0.755-0.268-1.133-0.801-1.133c-0.422,0-0.699,0.211-0.834,0.633c-0.043,0.067-0.066,0.201-0.066,0.4v3H11v-3.533
			c0-0.8-0.012-1.355-0.033-1.666h1.4l0.1,0.699c0.367-0.556,0.9-0.833,1.633-0.833c0.557,0,1.006,0.194,1.35,0.583
			c0.346,0.389,0.518,0.95,0.518,1.684V15.3z"/>
	</g>
	<g>
		<path d="M12,21c-4.963,0-9-4.037-9-9s4.037-9,9-9s9,4.037,9,9S16.963,21,12,21z M12,5c-3.859,0-7,3.141-7,7s3.141,7,7,7
			s7-3.141,7-7S15.859,5,12,5z"/>
	</g>
</g>
<g id="nyt_x5F_exporter_x5F_info" display="none">
</g>
</svg>
